X: 50
T: THE YORKSHIRE BITE
B: "Old English Country Dances", Frank Kidson ed., William Reeves pub., London 1890
Z: 2010-9-26 John Chambers <jc:trillian.mit.edu>
M: 2/4
L: 1/8
K: A
|: AAcA | ecBA | GABG | dBAG |\
   AAcA | ecBA | fdBG | A2A2 :|
|: ceAe | dfBd | ceAc | BGFE |\
   ceAe | dfBf | edcB | A2A2 :|


%%sep 1 1 500

%%sep 1 1 500

